X: 3
T: The Whinny Hills Of Leitrim
R: slip jig
M: 9/8
L: 1/8
K: Dmaj
FAA FAB AFD|FAA ded B2z|FAA FAB AFD|efd edc B2z:|~f3 efe ded|~f3 def gzb|afd gfe dBA|BAF EFA B2z:|


Tune 1064	Setting 1064

